X:16
T:GRNWALE1- Granuwail
S:from Cooke's Selection', c 1795 & Hime's, c 1805
Q:1/4=120
L:1/8
M:6/8
K:G dorian
(B/c/)|d3/2e/d cAd|G3/2A/G G2A/B/|cAB cAG|\
F3/2G/F F2(c/e/)|fed cAc|de^fg2 (a/g/)|\
fed cAd|G3/2A/G G2(d/e/)|fed cAc|de^fg2(a/g/)|\
fed cAd|G3/2A/G G2:]

